X:1
T:Title
%%score { 1 | ( 2 3 ) }
L:1/8
M:3/4
K:Bb
V:1 treble nm="Grand Piano"
V:2 bass 
V:3 bass 
V:1
 z2 z2[Q:1/4=124] [DF]2 | [DF] [DF]3 [DF]2 | [DF]6 | G G3 G2 | G4 GG | [DF]4 [DF][DF] | %6
 [DB]2 [Ec]2 [Fd]2 | c6- | c4 F2 | [Fd] [Fd]3 [Fd]2 | [Fd]6 | [FB] [FB]3 [FB]2 | [GB]2 [FA]2 G2 | %13
 F3 F F2 | F2 G2 A2 | [DB]6- | [DB]4 z2 | c2 c2 c2 | c2 B2 c2 | [Fd]2 [Fd]2 d2 | d4 z2 | B2 B2 B2 | %22
 B2 A2 B2 | c2 c2 c2 | c4 FF | [DB]6 | [Fd]4 [FB]2 | G6 | B2 A2 G2 | F2 F2 F2 | d4 c2 | [DB]6- | %32
[M:2/4] [DB]4 |] %33
V:2
 z2 z2 [B,,B,]2 | [B,,B,] [B,,B,]3 [B,,B,]2 | [B,,B,]6 | [E,B,E] [E,B,E]3 [E,B,E]2 | %4
 [E,B,E]4 [E,B,E][E,B,E] | [B,,B,]4 [B,,B,][B,,B,] | [B,,B,]2 [B,,B,]2 [B,,B,]2 | [F,A,F]6- | %8
 [F,A,F]4 [F,A,]2 | [B,,B,] [B,,B,]3 [B,,B,]2 | [B,,B,]6 | [D,B,] [D,B,]3 [D,B,]2 | %12
 [E,B,]2 [E,B,]2 [E,B,E]2 | [F,B,D]3 [F,B,D] [F,B,D]2 | [F,A,E]2 [F,B,E]2 [F,CE]2 | [B,,B,]6- | %16
 [B,,B,]4 z2 | [F,A,F]2 [F,A,F]2 [F,A,F]2 | [F,A,F]2 [F,G,F]2 [F,A,F]2 | %19
 [B,,B,]2 [D,B,]2[K:treble] [F,B,F]2 | [B,F]4 z2 | [G,B,D]2 [G,B,D]2 [G,B,D]2 | %22
 [G,B,=E]2 [G,B,E]2 [G,B,E]2 | [F,A,F]2 [F,A,F]2 [F,A,F]2 | [F,A,F]4 [F,A,E][F,A,E] | [B,,B,]6- | %26
 [B,,B,]4 [D,B,]2 | E6 | z6 | [F,B,D]2 [F,B,D]2 [F,B,D]2 | [F,A,F]4 [F,A,E]2 | [B,,B,]6- | %32
[M:2/4] [B,,B,]4 |] %33
V:3
 x6 | x6 | x6 | x6 | x6 | x6 | x6 | x6 | x6 | x6 | x6 | x6 | x6 | x6 | x6 | x6 | x6 | x6 | x6 | %19
 x4[K:treble] x2 | x6 | x6 | x6 | x6 | x6 | x6 | x6 | [E,B,]6- | [E,B,G]2 [E,B,F]2 [E,B,E]2 | x6 | %30
 x6 | x6 |[M:2/4] x4 |] %33

